src/Assets/icons/folder-check.svg

<svg class="svg-icon" viewBox="0 0 24 24" fill="none" xmlns="http://www.w3.org/2000/svg">
<path d="M3 9.312C3 4.93757 3.93757 4 8.312 4H9.92963C10.5983 4 11.2228 4.3342 11.5937 4.8906L12.4063 6.1094C12.7772 6.6658 13.4017 7 14.0704 7C15.9647 7 17.8145 7 19.1258 7C20.1807 7 21.0128 7.82095 21.0029 8.8758C21.0013 9.05376 21 9.20638 21 9.312V14.688C21 19.0624 20.0624 20 15.688 20H8.312C3.93757 20 3 19.0624 3 14.688V9.312Z" stroke="currentColor" stroke-width="2"/>
<path d="M9 14L10.9145 15.9145V15.9145C10.9617 15.9617 11.0383 15.9617 11.0855 15.9145V15.9145L16 11" stroke="currentColor" stroke-width="2" stroke-linecap="round" stroke-linejoin="round"/>
</svg>

<svg class="svg-icon" viewBox="0 0 24 24" fill="none" xmlns="http://www.w3.org/2000/svg"><path d="M3 9.312C3 4.938 3.938 4 8.312 4H9.93a2 2 0 0 1 1.664.89l.812 1.22A2 2 0 0 0 14.07 7h5.056c1.055 0 1.887.82 1.877 1.876L21 9.312v5.376C21 19.062 20.062 20 15.688 20H8.312C3.938 20 3 19.062 3 14.688V9.312Z" stroke="currentColor" stroke-width="2"/><path d="m9 14 1.915 1.915v0a.121.121 0 0 0 .17 0v0L16 11" stroke="currentColor" stroke-width="2" stroke-linecap="round" stroke-linejoin="round"/></svg>
